svg/info.svg

<svg height="1024" width="896" xmlns="http://www.w3.org/2000/svg">
  <path d="M448 384c35.375 0 64-28.594 64-64 0-35.312-28.625-64-64-64-35.406 0-64 28.688-64 64C384 355.406 412.594 384 448 384zM448 64C200.562 64 0 264.562 0 512c0 247.438 200.562 448 448 448 247.438 0 448-200.562 448-448C896 264.562 695.438 64 448 64zM448 832c-176.781 0-320-143.25-320-320 0-176.781 143.219-320 320-320 176.75 0 320 143.219 320 320C768 688.75 624.75 832 448 832zM512 512c0-66-64-64-64-64s0 0-64 0-64 64-64 64h64c0 0 0 128 0 192s64 64 64 64 0 0 64 0 64-64 64-64h-64C512 704 512 578 512 512z" />
</svg>

<svg height="1024" width="896" xmlns="http://www.w3.org/2000/svg">
  <path d="M448 384c35 0 64-29 64-64s-29-64-64-64-64 29-64 64 29 64 64 64z m0-320c-247 0-448 201-448 448s201 448 448 448 448-201 448-448-201-448-448-448z m0 768c-177 0-320-143-320-320s143-320 320-320 320 143 320 320-143 320-320 320z m64-320c0-32-32-64-64-64s-32 0-64 0-64 32-64 64h64s0 160 0 192 32 64 64 64 32 0 64 0 64-32 64-64h-64s0-160 0-192z" />
</svg>
